client/src/assets/images/icon-nutrition-white.svg

<svg fill="none" height="92" viewBox="0 0 92 92" width="92" xmlns="http://www.w3.org/2000/svg"><g stroke="#fff" stroke-linejoin="round" stroke-width="1.5"><path d="m33.874 28.7319c2.9686 0 5.375-2.4064 5.375-5.375 0-2.9685-2.4064-5.375-5.375-5.375-2.9685 0-5.375 2.4065-5.375 5.375 0 2.9686 2.4065 5.375 5.375 5.375z"/><path d="m61.499 39.2319c2.0711 0 3.75-1.6789 3.75-3.75 0-2.071-1.6789-3.75-3.75-3.75-2.071 0-3.75 1.679-3.75 3.75 0 2.0711 1.679 3.75 3.75 3.75z"/><path d="m51.749 55.7319h15l5-20"/><path d="m56.749 70.2319v-13"/><path d="m64.749 70.2319v-13"/><path d="m65.249 44.4819c0-.8619-.3426-1.6886-.9521-2.2981s-1.4359-.9519-2.2979-.9519c-.8619 0-1.6888.3424-2.2983.9519s-.9517 1.4362-.9517 2.2981v5.75h-6c-.3978 0-.7792.1581-1.0605.4394s-.4395.6628-.4395 1.0606c0 .3979.1582.7794.4395 1.0607s.6627.4393 1.0605.4393h11c.3978 0 .7793-.158 1.0606-.4393s.4394-.6628.4394-1.0607z"/><path d="m65.249 48.2319-6 2v3"/><path d="m32.249 37.232 6.6621 5.116c.0927.0544.1885.1025.2876.144.034.015.0651.035.1001.049.1072.041.2173.0744.3291.1.051.013.0999.03.1529.041.1032.0168.2074.0272.312.031.053 0 .1002.016.1572.016h6c.663 0 1.2987-.2634 1.7676-.7322.4688-.4689.7324-1.1047.7324-1.7678 0-.663-.2636-1.2989-.7324-1.7677-.4689-.4689-1.1046-.7323-1.7676-.7323h-5.2842l-8.3779-6.551c-1.063-.6937-2.321-1.0264-3.5879-.949-1.2587.0035-2.4649.505-3.355 1.395-.89.8901-1.3916 2.0963-1.395 3.355v34.253h9.5v-27.405"/><path d="m29.249 50.2319v19"/></g><path d="m56.0728 38.1528c.1015.6636-.0629 1.3404-.4576 1.8834-.3946.543-.9874.9084-1.6499 1.0167-.6625.1082-1.3411-.0493-1.8882-.4384-.547-.3891-.9181-.9784-1.0332-1.6397z" fill="#fff"/><path d="m52.3002 38.7692-6.2865 1.0277.2055 1.2573 6.2866-1.0277z" fill="#fff"/></svg>

<svg width="92" height="92" viewBox="0 0 92 92" fill="none" xmlns="http://www.w3.org/2000/svg">
<path d="M33.874 28.7319C36.8426 28.7319 39.249 26.3255 39.249 23.3569C39.249 20.3884 36.8426 17.9819 33.874 17.9819C30.9055 17.9819 28.499 20.3884 28.499 23.3569C28.499 26.3255 30.9055 28.7319 33.874 28.7319Z" stroke="white" stroke-width="1.5" stroke-linejoin="round"/>
<path d="M61.499 39.2319C63.5701 39.2319 65.249 37.553 65.249 35.4819C65.249 33.4109 63.5701 31.7319 61.499 31.7319C59.428 31.7319 57.749 33.4109 57.749 35.4819C57.749 37.553 59.428 39.2319 61.499 39.2319Z" stroke="white" stroke-width="1.5" stroke-linejoin="round"/>
<path d="M51.749 55.7319H66.749L71.749 35.7319" stroke="white" stroke-width="1.5" stroke-linejoin="round"/>
<path d="M56.749 70.2319V57.2319" stroke="white" stroke-width="1.5" stroke-linejoin="round"/>
<path d="M64.749 70.2319V57.2319" stroke="white" stroke-width="1.5" stroke-linejoin="round"/>
<path d="M65.249 44.4819C65.249 43.62 64.9064 42.7933 64.2969 42.1838C63.6874 41.5743 62.861 41.2319 61.999 41.2319C61.1371 41.2319 60.3102 41.5743 59.7007 42.1838C59.0912 42.7933 58.749 43.62 58.749 44.4819V50.2319H52.749C52.3512 50.2319 51.9698 50.39 51.6885 50.6713C51.4072 50.9526 51.249 51.3341 51.249 51.7319C51.249 52.1298 51.4072 52.5113 51.6885 52.7926C51.9698 53.0739 52.3512 53.2319 52.749 53.2319H63.749C64.1468 53.2319 64.5283 53.0739 64.8096 52.7926C65.0909 52.5113 65.249 52.1298 65.249 51.7319V44.4819Z" stroke="white" stroke-width="1.5" stroke-linejoin="round"/>
<path d="M65.249 48.2319L59.249 50.2319V53.2319" stroke="white" stroke-width="1.5" stroke-linejoin="round"/>
<path d="M32.249 37.232L38.9111 42.348C39.0038 42.4024 39.0996 42.4505 39.1987 42.492C39.2327 42.507 39.2638 42.527 39.2988 42.541C39.406 42.582 39.5161 42.6154 39.6279 42.641C39.6789 42.654 39.7278 42.671 39.7808 42.682C39.884 42.6988 39.9882 42.7092 40.0928 42.713C40.1458 42.713 40.193 42.729 40.25 42.729H46.25C46.913 42.729 47.5487 42.4656 48.0176 41.9968C48.4864 41.5279 48.75 40.8921 48.75 40.229C48.75 39.566 48.4864 38.9301 48.0176 38.4613C47.5487 37.9924 46.913 37.729 46.25 37.729H40.9658L32.5879 31.178C31.5249 30.4843 30.2669 30.1516 29 30.229C27.7413 30.2325 26.5351 30.734 25.645 31.624C24.755 32.5141 24.2534 33.7203 24.25 34.979V69.232H33.75V41.827" stroke="white" stroke-width="1.5" stroke-linejoin="round"/>
<path d="M29.249 50.2319V69.2319" stroke="white" stroke-width="1.5" stroke-linejoin="round"/>
<path d="M56.0728 38.1528C56.1743 38.8164 56.0099 39.4932 55.6152 40.0362C55.2206 40.5792 54.6278 40.9446 53.9653 41.0529C53.3028 41.1611 52.6242 41.0036 52.0771 40.6145C51.5301 40.2254 51.159 39.6361 51.0439 38.9748L56.0728 38.1528Z" fill="white"/>
<path d="M52.3002 38.7692L46.0137 39.7969L46.2192 41.0542L52.5058 40.0265L52.3002 38.7692Z" fill="white"/>
</svg>
